src/icons/github-alt.svg

<svg width="24" height="24" viewBox="0 0 24 24" xmlns="http://www.w3.org/2000/svg" fill="currentColor"><path d="M21.0346 5.25749C21.9445 6.34934 22.3994 7.62316 22.3994 9.07896C22.3994 14.3562 19.3969 15.903 16.5763 16.3579C16.9402 16.9948 17.0312 17.7227 17.0312 18.4506V22.1811C17.0312 22.6361 16.7582 22.909 16.3943 22.909C16.0303 22.909 15.6664 22.6361 15.6664 22.1811V18.4506C15.7574 17.6318 15.4844 16.9039 14.9385 16.3579L15.3934 15.1751C18.214 14.8112 21.1256 13.9013 21.1256 8.98797C21.1256 7.80514 20.6707 6.71329 19.8518 5.80342L19.6698 5.07552C20.0338 4.16565 20.0338 3.16479 19.7608 2.3459C19.3059 2.43689 18.396 2.61887 16.8492 3.71071L16.3033 3.8017C14.1196 3.25578 11.9359 3.25578 9.75222 3.8017L9.2063 3.71071C7.56853 2.70985 6.65866 2.43689 6.20372 2.43689C5.93076 3.34676 5.93076 4.34762 6.29471 5.16651L6.11274 5.8944C5.20286 6.80428 4.74793 7.98711 4.74793 9.07896C4.74793 13.9013 7.47754 14.9021 10.4801 15.2661L10.8441 16.4489C10.2981 16.9948 10.0252 17.7227 10.1162 18.4506V19.3605V19.4515V22.2721C10.1162 22.6361 9.84321 23 9.38828 23C9.02433 23 8.66038 22.727 8.66038 22.2721V20.1794C5.6578 20.8163 4.47497 19.2695 3.5651 18.0867C3.11016 17.5408 2.74621 17.0858 2.29127 16.9948C2.20029 16.9039 1.92733 16.5399 2.01831 16.176C2.1093 15.812 2.47325 15.5391 2.8372 15.721C3.74707 15.903 4.29299 16.6309 4.83892 17.2678C5.6578 18.3597 6.47669 19.3605 8.93334 18.8146V18.4506C8.84235 17.7227 9.02433 16.9948 9.38828 16.3579C6.65866 15.812 3.47411 14.2652 3.47411 9.07896C3.47411 7.62316 3.92904 6.34934 4.83892 5.25749C4.56595 3.98367 4.65694 2.61887 5.11188 1.52702L5.56681 1.16307C5.74879 1.07208 7.02261 0.799121 9.66124 2.43689C11.8449 1.89097 14.1196 1.89097 16.3033 2.43689C18.8509 0.708134 20.2158 0.981096 20.3977 1.07208L20.8527 1.43603C21.3076 2.70985 21.3986 3.98367 21.0346 5.25749Z"/></svg>

<svg width="24" height="24" viewBox="0 0 24 24" xmlns="http://www.w3.org/2000/svg" fill="currentColor"><path d="M21.035 5.257c.91 1.092 1.364 2.366 1.364 3.822 0 5.277-3.002 6.824-5.823 7.279.364.637.455 1.365.455 2.093v3.73c0 .455-.273.728-.637.728a.718.718 0 0 1-.728-.728v-3.73a2.497 2.497 0 0 0-.728-2.093l.455-1.183c2.821-.364 5.733-1.274 5.733-6.187 0-1.183-.455-2.275-1.274-3.185l-.182-.727a4.04 4.04 0 0 0 .09-2.73c-.454.09-1.364.273-2.91 1.365l-.547.09a13.307 13.307 0 0 0-6.55 0l-.547-.09C7.57 2.71 6.66 2.437 6.204 2.437c-.273.91-.273 1.91.09 2.73l-.181.727c-.91.91-1.365 2.093-1.365 3.185 0 4.822 2.73 5.823 5.732 6.187l.364 1.183c-.546.546-.819 1.274-.728 2.002v3.821a.718.718 0 0 1-.728.728.718.718 0 0 1-.728-.728V20.18c-3.002.637-4.185-.91-5.095-2.092-.455-.546-.819-1.001-1.274-1.092-.09-.091-.364-.455-.273-.819.091-.364.455-.637.82-.455.91.182 1.455.91 2 1.547.82 1.092 1.639 2.092 4.095 1.547v-.364c-.09-.728.091-1.456.455-2.093-2.73-.546-5.914-2.093-5.914-7.279 0-1.456.455-2.73 1.365-3.822-.273-1.273-.182-2.638.273-3.73l.455-.364C5.749 1.073 7.023.8 9.66 2.437a13.673 13.673 0 0 1 6.642 0C18.851.708 20.216.98 20.398 1.072l.455.364c.455 1.274.546 2.548.182 3.821z"/></svg>
